X:1
T:Petre, amas me?
T:Jan Tollius
T:Petre, amas me?
C:Jan Tollius
%%score [ 1 2 3 ]
L:1/8
Q:1/4=70
M:4/4
K:Bb
V:1 treble nm="Soprano" snm="S"
V:2 treble-8 nm="Tenor" snm="T"
V:3 bass nm="Bass" snm="B"
V:1
 z4 f4 | d2 f3 e dc | d e2 d e4 | f8 | f4 f4 | f4 B4 | =B3 c d2 e2 | d4 z4 | z2 A3 B c2- | %9
w: Pe-|tre, a- * * *|* * mas me?|Pe-|tre, a-|mas me?|Tu scis, Do- mi-|ne,|qui- a a-|
 cB BA/G/ A2 A2 | G2 d/e<fe/d/c/ B2- | BB A2 B2 z d/e/ | f>e d/c/ B2 d c2 | B2 d/e<fe/d/c/ B2- | %14
w: * * * * * * mo|te, Pa- sce o- * * * *|* ves me- as. Pa- sce|o- * * * * ves me-|as. Pa- sce o- * * * *|
 BB A2 B4- | B8 || z4 z4 | F4 F2 B2- | BAGF GA B2- | B2 AG A3 G | AA/A/ AB A2 A2 | AA/A/ AB A4 | %22
w: * ves me- as.|_||Bo- nus pa-||* * * * stor|a- ni- mam su- am po- nit|a- ni- mam su- am po-|
 =B4 z4 | z4 F4 | F2 B3 A GF | GA B4 AG | A3 G AA/A/ AB | A2 A2 AA/A/ AB | A4 =B2 z _B | %29
w: nit|Bo-|nus pa- * * *||* stor a- ni- mam su- am|po- nit a- ni- mam su- am|po- nit pro|
 d>d cd>cB/A/ G/A/B/G/ | A B2 A B4 | z A c>c Ad>cB/A/ | G/F/ F2 =E F2 z A | c>c Bc>BA/G/ F/G/A/F/ | %34
w: o- vi- bus su- * * * * * * *|* * * is.|pro o- vi- bus su- * * *|* * * * is. pro|o- vi- bus su- * * * * * * *|
 GA G2 F4- | F8 |] %36
w: * * * is.|_|
V:2
 z2 f4 d2 | f3 e dcde | f2 f2 g4 | z2 f4 d2 | f3 e dcde | f2 f2 g4 | G3 A =B2 c2 | =B2 d3 e f2- | %8
w: Pe- tre,|a- * * * * *|* mas me?|Pe- tre,|a- * * * * *|* mas me?|Tu scis, Do- mi-|ne, qui- a a-|
 fe ed/c/ d2 e2 | ^f2 g4 f2 | g2 z d/e/ f>e d/c/B- | Bd c2 B2 z2 | z2 z d/e/ fF c2 | %13
w: |* * mo|te, Pa- sce o- * * * *|* ves me- as.|Pa- sce o- ves me-|
 F2 z d/e/ f>e d/c/B- | Bd c2 B4- | B8 || c4 c2 f2- | fedc de f2- | f2 =ed e f2 e | f4 ^ff/f/ fg | %20
w: as. Pa- sce o- * * * *|* ves me- as.|_|Bo- nus pa-|||stor a- ni- mam su- am|
 ^f4 f4 | ^ff/f/ fg f4 | g4 c4 | c2 f3 e dc | de f4 =ed | =e f2 e f4 | ^ff/f/ fg f4 | %27
w: po- nit|a- ni- mam su- am po-|nit Bo-|nus pa- * * *||* * * stor|a- ni- mam su- am po-|
 ^f4 ff/f/ fg | ^f4 g4 | z d f>f dg>fe- | e/d/d/c/4B/4 c2 d2 z d | f>f =ef>_ed/c/ B/c/d/B/ | %32
w: nit a- ni- mam su- am|po- nit|pro o- vi- bus su- * *|* * * * * * is. pro|o- vi- bus su- * * * * * * *|
 cd c2 f4 | z e g>g =ef/_e/ d/e/f/e/ | d/c/ f2 =e f4- | f8 |] %36
w: * * * is.|pro o- vi- bus su- * * * * *|* * * * is.|_|
V:3
 B,8 | B,4 B,4 | B,4 E,4 | z4 F,4 | D,2 F,3 E, D,C, | D, E,2 D, E,4 | z2 G,3 F, E,C, | %7
w: Pe-|tre, a-|mas me?|Pe-|tre, a- * * *|* * mas me?|Tu scis, Do- mi-|
 G,4 z2 D,2- | D,E, F,3 E, E,D,/C,/ | D,6 D,2 | G,,2 z2 z2 z G,/A,/ | B,B,, F,2 B,,2 D,/E,/F,- | %12
w: ne, qui-|* a a- * * * *|* mo|te, Pa- sce|o- ves me- as. Pa- sce o-|
 F,/E,/D,/C,/ B,,3 B,, A,,2 | B,,4 z2 z G,/A,/ | B,B,, F,2 B,,4- | B,,8 || z4 F,4 | %17
w: * * * * * ves me-|as. Pa- sce|o- ves me- as.|_|Bo-|
 F,2 B,3 A, G,F, | G,8 | F,4 D,D,/D,/ D,E, | D,2 D,2 D,D,/D,/ D,C, | D,8 | G,,4 z4 | F,4 F,2 B,2- | %24
w: nus pa- * * *||stor a- ni- mam su- am|po- nit a- ni- mam su- am|po-|nit|Bo- nus pa-|
 B,A,G,F, G,4- | G,4 F,4 | D,D,/D,/ D,E, D,2 D,2 | D,D,/D,/ D,C, D,4- | D,4 G,,2 z G, | %29
w: |* stor|a- ni- mam su- am po- nit|a- ni- mam su- am po-|* nit pro|
 B,>B, A,B,>A,G,/F,/ E,/F,/G,/E,/ | F,G, F,2 B,4 | z F, A,>A, F,B,>A,G,/F,/ | %32
w: o- vi- bus su- * * * * * * *|* * * is.|pro o- vi- bus su- * * *|
 E,/D,/D,/C,/4B,,/4 C,2 D,4 | z C, E,>E, C,F,>E,D,/C,/ | B,,A,,/B,,/ C,2 F,,4- | F,,8 |] %36
w: * * * * * * is.|pro o- vi- bus su- * * *|* * * * is.|_|

